src/assets/icons/contact.svg

<svg xmlns="http://www.w3.org/2000/svg" width="24" height="24" fill="currentColor"><g clip-path="url(#a)"><path d="M10 2h8c1.1 0 2 .9 2 2v16c0 1.1-.9 2-2 2H6c-1.1 0-2-.9-2-2V8l6-6Zm2 8c-1.1 0-2 .9-2 2s.9 2 2 2 2-.9 2-2-.9-2-2-2Zm-4 8h8v-.57c0-.81-.48-1.53-1.22-1.85a6.95 6.95 0 0 0-5.56 0A2.01 2.01 0 0 0 8 17.43V18Z"/></g><defs><clipPath id="a"><path d="M24 0H0v24h24z"/></clipPath></defs></svg>

<svg width="24" height="24" viewBox="0 0 24 24" fill="currentColor" xmlns="http://www.w3.org/2000/svg">
<g clip-path="url(#clip0_149_2599)">
<path d="M10 2L18 2C19.1 2 20 2.9 20 4L20 20C20 21.1 19.1 22 18 22L6 22C4.9 22 4 21.1 4 20L4 8L10 2ZM12 10C10.9 10 10 10.9 10 12C10 13.1 10.9 14 12 14C13.1 14 14 13.1 14 12C14 10.9 13.1 10 12 10ZM8 18L16 18L16 17.43C16 16.62 15.52 15.9 14.78 15.58C13.93 15.21 12.99 15 12 15C11.01 15 10.07 15.21 9.22 15.58C8.48 15.9 8 16.62 8 17.43L8 18Z" fill="currentColor"/>
</g>
<defs>
<clipPath id="clip0_149_2599">
<rect width="24" height="24" fill="currentColor" transform="matrix(-1 8.74228e-08 8.74228e-08 1 24 0)"/>
</clipPath>
</defs>
</svg>
